images/icons/loading-el1.svg

<svg width="280" height="221" viewBox="0 0 280 221" fill="none" xmlns="http://www.w3.org/2000/svg">
<path d="M129.249 215.701C118.878 203.525 101.567 190.501 84.8024 182.262C67.8744 173.941 51.7944 169.319 33.5384 167.532C29.9394 167.183 26.9554 166.858 26.9074 166.811C26.8604 166.811 26.9534 129.23 27.1404 83.4021L27.4474 0.0813999L30.7704 0.407201C51.1794 2.4316 73.9574 10.1428 91.1924 20.8907C106.045 30.1516 121.383 44.4526 131.162 58.1555L133.623 61.604V140.75C133.623 184.279 133.436 219.887 133.213 219.88C132.98 219.873 131.199 217.991 129.249 215.701ZM146.155 140.55V61.0734L150.908 54.7234C156.975 46.6166 169.18 34.4028 177.251 28.3646C198.824 12.2184 222.226 3.0947 249.092 0.349L252.5 0V83.437V166.876L248.547 167.249C211.137 170.73 178.705 186.164 153.338 212.555L146.155 220.029V140.55ZM169.333 214.626C184.016 200.851 203.453 189.905 222.978 184.412C233.196 181.538 246.482 179.532 255.303 179.532C259.927 179.532 262.492 178.532 263.939 176.156C265.028 174.364 265.04 173.594 265.042 105.984L265.044 37.6162L267.089 37.9885C268.213 38.2212 271.404 39.1054 274.179 39.9897L279.223 41.5952V126.919C279.223 173.848 279.037 212.243 278.807 212.243C278.574 212.243 275.203 211.522 271.308 210.638C255.917 207.171 243.243 205.979 226.597 206.428C206.406 206.987 190.714 209.802 172.061 216.248L164.971 218.698L169.333 214.626ZM107.162 215.952C99.4154 213.179 86.6224 209.909 77.9854 208.499C66.2424 206.591 58.1404 206.084 43.7474 206.405C29.4474 206.708 20.7974 207.708 8.9973 210.386C5.6978 211.131 2.3233 211.899 1.4985 212.062L0 212.388L0.00249481 126.835L0.0052948 41.2811L6.411 39.4196C9.9338 38.3957 13.1234 37.4417 13.4984 37.3254C14.0404 37.0927 14.1804 51.0306 14.1804 105.617C14.1804 180.209 14.0174 176.051 17.1994 178.143C18.3074 178.864 20.6084 179.19 27.1804 179.586C53.2984 181.075 78.0814 189.845 98.3134 204.767C102.676 207.985 113.147 216.823 113.747 217.793C114.166 218.468 113.886 218.398 107.163 215.978L107.162 215.952Z" fill="url(#paint0_radial_826_17)"/>
<defs>
<radialGradient id="paint0_radial_826_17" cx="0" cy="0" r="1" gradientUnits="userSpaceOnUse" gradientTransform="translate(139.611 110.014) rotate(90) scale(110.015 139.612)">
<stop stop-color="#02C39A"/>
<stop offset="0.489583" stop-color="#00A896"/>
<stop offset="1" stop-color="#028090"/>
</radialGradient>
</defs>
</svg>

<svg width="280" height="221" fill="none" xmlns="http://www.w3.org/2000/svg"><path d="M129.249 215.701c-10.371-12.176-27.682-25.2-44.447-33.439-16.928-8.321-33.008-12.943-51.264-14.73-3.599-.349-6.583-.674-6.63-.721-.048 0 .045-37.581.232-83.409l.307-83.32 3.323.325c20.41 2.025 43.187 9.736 60.422 20.484 14.853 9.26 30.191 23.562 39.97 37.265l2.461 3.448v79.146c0 43.529-.187 79.137-.41 79.13-.233-.007-2.014-1.889-3.964-4.179Zm16.906-75.151V61.073l4.753-6.35c6.067-8.106 18.272-20.32 26.343-26.358 21.573-16.147 44.975-25.27 71.841-28.016L252.5 0V166.876l-3.953.373c-37.41 3.481-69.842 18.915-95.209 45.306l-7.183 7.474V140.55Zm23.178 74.076c14.683-13.775 34.12-24.721 53.645-30.214 10.218-2.874 23.504-4.88 32.325-4.88 4.624 0 7.189-1 8.636-3.376 1.089-1.792 1.101-2.562 1.103-70.172l.002-68.368 2.045.373c1.124.232 4.315 1.116 7.09 2l5.044 1.606v85.324c0 46.929-.186 85.324-.416 85.324-.233 0-3.604-.721-7.499-1.605-15.391-3.467-28.065-4.659-44.711-4.21-20.191.559-35.883 3.374-54.536 9.82l-7.09 2.45 4.362-4.072Zm-62.171 1.326c-7.747-2.773-20.54-6.043-29.177-7.453-11.743-1.908-19.845-2.415-34.238-2.094-14.3.303-22.95 1.303-34.75 3.981-3.3.745-6.674 1.513-7.498 1.676L0 212.388l.002-85.553.003-85.554 6.406-1.861a749.852 749.852 0 0 0 7.087-2.095c.542-.232.682 13.706.682 68.292 0 74.592-.163 70.434 3.02 72.526 1.107.721 3.408 1.047 9.98 1.443 26.118 1.489 50.901 10.259 71.133 25.181 4.363 3.218 14.834 12.056 15.434 13.026.419.675.139.605-6.584-1.815l-.001-.026Z" fill="url(#a)"/><defs><radialGradient id="a" cx="0" cy="0" r="1" gradientUnits="userSpaceOnUse" gradientTransform="matrix(0 110.015 -139.612 0 139.611 110.014)"><stop stop-color="#02C39A"/><stop offset=".49" stop-color="#00A896"/><stop offset="1" stop-color="#028090"/></radialGradient></defs></svg>
